public/images/icons/cloudflare-workers-icon.svg

<svg fill="none" height="375" viewBox="0 0 416 375" width="416" xmlns="http://www.w3.org/2000/svg" xmlns:xlink="http://www.w3.org/1999/xlink"><linearGradient id="a" gradientUnits="userSpaceOnUse" x1="77.9679" x2="-81.7456" y1="369.7" y2="112.842"><stop offset="0" stop-color="#eb6f07"/><stop offset="1" stop-color="#fab743"/></linearGradient><linearGradient id="b" gradientUnits="userSpaceOnUse" x1="127.492" x2="45.2575" y1="337.948" y2="253.372"><stop offset="0" stop-color="#d96504"/><stop offset="1" stop-color="#d96504" stop-opacity="0"/></linearGradient><linearGradient id="c" gradientUnits="userSpaceOnUse" x1="100.372" x2="143.905" y1="14.1957" y2="84.1263"><stop offset="0" stop-color="#eb6f07"/><stop offset="1" stop-color="#eb720a" stop-opacity="0"/></linearGradient><linearGradient id="d" gradientUnits="userSpaceOnUse" x1="311.923" x2="168.913" y1="375" y2="77.003"><stop offset="0" stop-color="#ee6f05"/><stop offset="1" stop-color="#fab743"/></linearGradient><linearGradient id="e" gradientUnits="userSpaceOnUse" x1="165.458" x2="394.43" y1="375.1" y2="316.984"><stop offset="0" stop-color="#d96504" stop-opacity=".8"/><stop offset=".498" stop-color="#d96504" stop-opacity=".2"/><stop offset="1" stop-color="#d96504" stop-opacity="0"/></linearGradient><linearGradient id="f" gradientUnits="userSpaceOnUse" x1="207.564" x2="61.6346" y1="375" y2="80.7418"><stop offset="0" stop-color="#ffa95f"/><stop offset="1" stop-color="#ffebc8"/></linearGradient><linearGradient id="g"><stop offset="0" stop-color="#fff" stop-opacity=".5"/><stop offset="1" stop-color="#fff" stop-opacity=".1"/></linearGradient><linearGradient id="h" gradientUnits="userSpaceOnUse" x1="207.786" x2="329.482" xlink:href="#g" y1="4.125" y2="23.2571"/><linearGradient id="i" gradientUnits="userSpaceOnUse" x1="92.2417" x2="242.662" xlink:href="#g" y1="388.599" y2="366.439"/><path d="m106.936 5.40002 49 88.39998-45 81c-2.154 3.868-3.285 8.222-3.285 12.65s1.131 8.782 3.285 12.65l45 81.2-49 88.4c-9.2202-4.571-16.8766-11.775-22.0001-20.7l-78.00001-135.5c-4.54447-7.912-6.93589-16.876-6.93589-26s2.39142-18.088 6.93589-26l78.00001-135.5c5.1389-8.8879 12.7939-16.05566 22.0001-20.59998z" fill="url(#a)"/><path d="m110.936 174.9c-2.136 3.856-3.257 8.192-3.257 12.6s1.121 8.744 3.257 12.6l45 81.2-49 88.4c-9.2202-4.571-16.8766-11.775-22.0001-20.7l-78.00001-135.5c-6.199999-10.7 28.50001-23.5 104.00011-38.5z" fill="url(#b)" opacity=".7"/><path d="m111.936 14.3 44 79.5-7.3 12.7-38.8-65.7c-11.2001-18.3-28.3001-8.8-49.7001 28.2l3.2-5.5 21.6-37.5c5.0856-8.8588 12.6678-16.02353 21.8001-20.59998l5.1 8.89998z" fill="url(#c)" opacity=".5"/><path d="m330.936 26 78 135.5c9.3 16 9.3 36 0 52l-78 135.5c-4.561 7.9-11.12 14.461-19.019 19.025s-16.859 6.969-25.981 6.975h-78l97-174.9c2.136-3.856 3.257-8.192 3.257-12.6s-1.121-8.744-3.257-12.6l-97-174.9h78c9.122.00584652 18.082 2.41134 25.981 6.97501 7.899 4.56369 14.458 11.12489 19.019 19.02499z" fill="url(#d)"/><path d="m281.936 374.4-77 .7 93.2-175.8c2.083-3.909 3.173-8.27 3.173-12.7s-1.09-8.791-3.173-12.7l-93.2-173.9h17.6l97.8 173.1c2.317 4.089 3.527 8.713 3.51 13.413-.018 4.701-1.262 9.315-3.61 13.387-21.049 36.582-41.949 73.249-62.7 110-19 33.4-10.8 54.9 24.4 64.5z" fill="url(#e)"/><path d="m129.936 375c-8 0-16-1.9-23-5.3l96.2-173.5c3-5.4 3-12 0-17.4l-96.2-173.4c7.151-3.54084 15.02-5.3885265 23-5.4h78l97 174.9c2.136 3.856 3.257 8.192 3.257 12.6s-1.121 8.744-3.257 12.6l-97 174.9z" fill="url(#f)"/><path d="m298.136 178.8-99.2-178.8h9l97 174.9c2.136 3.856 3.257 8.192 3.257 12.6s-1.121 8.744-3.257 12.6l-97 174.9h-9l99.2-178.8c3-5.4 3-12 0-17.4z" fill="url(#h)" opacity=".6"/><path d="m203.136 178.8-96.2-173.40002c3-1.6 6.6-2.8 10-3.8 21.2 38.10002 52.5 95.90002 94 173.30002 2.136 3.856 3.257 8.192 3.257 12.6s-1.121 8.744-3.257 12.6l-95.5 172.9c-3.4-1-5.2-1.7-8.4-3.2l96-173.5c3-5.4 3-12 0-17.4z" fill="url(#i)" opacity=".6"/></svg>

<svg width="416" height="375" viewBox="0 0 416 375" fill="none" xmlns="http://www.w3.org/2000/svg">
<path d="M106.936 5.40002L155.936 93.8L110.936 174.8C108.782 178.668 107.651 183.022 107.651 187.45C107.651 191.878 108.782 196.232 110.936 200.1L155.936 281.3L106.936 369.7C97.7158 365.129 90.0594 357.925 84.9359 349L6.93589 213.5C2.39142 205.588 0 196.624 0 187.5C0 178.376 2.39142 169.412 6.93589 161.5L84.9359 26C90.0748 17.1121 97.7298 9.94434 106.936 5.40002V5.40002Z" fill="url(#paint0_linear)"/>
<path opacity="0.7" d="M110.936 174.9C108.8 178.756 107.679 183.092 107.679 187.5C107.679 191.908 108.8 196.244 110.936 200.1L155.936 281.3L106.936 369.7C97.7158 365.129 90.0594 357.925 84.9359 349L6.93589 213.5C0.735891 202.8 35.4359 190 110.936 175V174.9Z" fill="url(#paint1_linear)"/>
<path opacity="0.5" d="M111.936 14.3L155.936 93.8L148.636 106.5L109.836 40.8C98.6359 22.5 81.5359 32 60.1359 69L63.3359 63.5L84.9359 26C90.0215 17.1412 97.6037 9.97647 106.736 5.40002L111.836 14.3H111.936Z" fill="url(#paint2_linear)"/>
<path d="M330.936 26L408.936 161.5C418.236 177.5 418.236 197.5 408.936 213.5L330.936 349C326.375 356.9 319.816 363.461 311.917 368.025C304.018 372.589 295.058 374.994 285.936 375H207.936L304.936 200.1C307.072 196.244 308.193 191.908 308.193 187.5C308.193 183.092 307.072 178.756 304.936 174.9L207.936 0H285.936C295.058 0.00584652 304.018 2.41134 311.917 6.97501C319.816 11.5387 326.375 18.0999 330.936 26V26Z" fill="url(#paint3_linear)"/>
<path d="M281.936 374.4L204.936 375.1L298.136 199.3C300.219 195.391 301.309 191.03 301.309 186.6C301.309 182.17 300.219 177.809 298.136 173.9L204.936 0H222.536L320.336 173.1C322.653 177.189 323.863 181.813 323.846 186.513C323.828 191.214 322.584 195.828 320.236 199.9C299.187 236.482 278.287 273.149 257.536 309.9C238.536 343.3 246.736 364.8 281.936 374.4V374.4Z" fill="url(#paint4_linear)"/>
<path d="M129.936 375C121.936 375 113.936 373.1 106.936 369.7L203.136 196.2C206.136 190.8 206.136 184.2 203.136 178.8L106.936 5.4C114.087 1.85916 121.956 0.0114735 129.936 0L207.936 0L304.936 174.9C307.072 178.756 308.193 183.092 308.193 187.5C308.193 191.908 307.072 196.244 304.936 200.1L207.936 375H129.936Z" fill="url(#paint5_linear)"/>
<path opacity="0.6" d="M298.136 178.8L198.936 0H207.936L304.936 174.9C307.072 178.756 308.193 183.092 308.193 187.5C308.193 191.908 307.072 196.244 304.936 200.1L207.936 375H198.936L298.136 196.2C301.136 190.8 301.136 184.2 298.136 178.8V178.8Z" fill="url(#paint6_linear)"/>
<path opacity="0.6" d="M203.136 178.8L106.936 5.39998C109.936 3.79998 113.536 2.59998 116.936 1.59998C138.136 39.7 169.436 97.5 210.936 174.9C213.072 178.756 214.193 183.092 214.193 187.5C214.193 191.908 213.072 196.244 210.936 200.1L115.436 373C112.036 372 110.236 371.3 107.036 369.8L203.036 196.3C206.036 190.9 206.036 184.3 203.036 178.9L203.136 178.8Z" fill="url(#paint7_linear)"/>
<defs>
<linearGradient id="paint0_linear" x1="77.9679" y1="369.7" x2="-81.7456" y2="112.842" gradientUnits="userSpaceOnUse">
<stop stop-color="#EB6F07"/>
<stop offset="1" stop-color="#FAB743"/>
</linearGradient>
<linearGradient id="paint1_linear" x1="127.492" y1="337.948" x2="45.2575" y2="253.372" gradientUnits="userSpaceOnUse">
<stop stop-color="#D96504"/>
<stop offset="1" stop-color="#D96504" stop-opacity="0"/>
</linearGradient>
<linearGradient id="paint2_linear" x1="100.372" y1="14.1957" x2="143.905" y2="84.1263" gradientUnits="userSpaceOnUse">
<stop stop-color="#EB6F07"/>
<stop offset="1" stop-color="#EB720A" stop-opacity="0"/>
</linearGradient>
<linearGradient id="paint3_linear" x1="311.923" y1="375" x2="168.913" y2="77.003" gradientUnits="userSpaceOnUse">
<stop stop-color="#EE6F05"/>
<stop offset="1" stop-color="#FAB743"/>
</linearGradient>
<linearGradient id="paint4_linear" x1="165.458" y1="375.1" x2="394.43" y2="316.984" gradientUnits="userSpaceOnUse">
<stop stop-color="#D96504" stop-opacity="0.8"/>
<stop offset="0.498" stop-color="#D96504" stop-opacity="0.2"/>
<stop offset="1" stop-color="#D96504" stop-opacity="0"/>
</linearGradient>
<linearGradient id="paint5_linear" x1="207.564" y1="375" x2="61.6346" y2="80.7418" gradientUnits="userSpaceOnUse">
<stop stop-color="#FFA95F"/>
<stop offset="1" stop-color="#FFEBC8"/>
</linearGradient>
<linearGradient id="paint6_linear" x1="207.786" y1="4.125" x2="329.482" y2="23.2571" gradientUnits="userSpaceOnUse">
<stop stop-color="white" stop-opacity="0.5"/>
<stop offset="1" stop-color="white" stop-opacity="0.1"/>
</linearGradient>
<linearGradient id="paint7_linear" x1="92.2417" y1="388.599" x2="242.662" y2="366.439" gradientUnits="userSpaceOnUse">
<stop stop-color="white" stop-opacity="0.5"/>
<stop offset="1" stop-color="white" stop-opacity="0.1"/>
</linearGradient>
</defs>
</svg>
